images/what-icon2.svg

<svg width="80" height="80" viewBox="0 0 80 80" fill="none" xmlns="http://www.w3.org/2000/svg">
<circle cx="40" cy="40" r="40" fill="#E9E9EC"/>
<path fill-rule="evenodd" clip-rule="evenodd" d="M26.1677 51.7454H33.0702C33.5245 51.7454 33.8919 52.1127 33.8919 52.5671V59.4695C33.8919 59.9239 33.5245 60.2913 33.0702 60.2913H26.1677C25.7134 60.2913 25.346 59.9239 25.346 59.4695V52.5671C25.346 52.1127 25.7134 51.7454 26.1677 51.7454ZM53.6132 42.1071H40.9587C40.5043 42.1071 40.137 41.7397 40.137 41.2854C40.137 40.831 40.5043 40.4636 40.9587 40.4636H53.6132C54.0675 40.4636 54.4349 40.831 54.4349 41.2854C54.4349 41.7397 54.0675 42.1071 53.6132 42.1071ZM34.4043 25.3827L27.9465 31.8404C27.8982 31.8984 27.8305 31.9468 27.7628 31.9854C27.3665 32.2078 26.8734 32.0821 26.6414 31.6857L24.6886 28.3022C24.4663 27.9155 24.592 27.4128 24.9883 27.1808C25.375 26.9584 25.8777 27.0841 26.1097 27.4805L27.5308 29.9456L33.2442 24.2323C33.5632 23.9132 34.0852 23.9132 34.4043 24.2323C34.7233 24.5513 34.7233 25.0733 34.4043 25.3923V25.3827ZM30.1893 15H20.8217C20.3674 15 20 15.3674 20 15.8217V63.6748C20 64.1292 20.3674 64.4965 20.8217 64.4965H58.1955C58.6498 64.4965 59.0172 64.1292 59.0172 63.6748V15.8217C59.0172 15.3674 58.6498 15 58.1955 15H48.8279V19.476C48.8279 19.9303 48.4605 20.2977 48.0061 20.2977H31.011C30.5567 20.2977 30.1893 19.9303 30.1893 19.476V15ZM40.137 56.0183C40.137 55.5639 40.5043 55.1966 40.9587 55.1966H53.6132C54.0675 55.1966 54.4349 55.5639 54.4349 56.0183C54.4349 56.4727 54.0675 56.84 53.6132 56.84H40.9587C40.5043 56.84 40.137 56.4727 40.137 56.0183ZM34.4043 38.6365L27.9465 45.0943C27.8982 45.1523 27.8305 45.2006 27.7628 45.2393C27.3665 45.4616 26.8734 45.336 26.6414 44.9396L24.6886 41.556C24.4663 41.1694 24.592 40.6667 24.9883 40.4346C25.375 40.2123 25.8777 40.338 26.1097 40.7343L27.5308 43.1995L33.2442 37.4861C33.5632 37.1671 34.0852 37.1671 34.4043 37.4861C34.7233 37.8051 34.7233 38.3272 34.4043 38.6462V38.6365ZM40.9587 28.8532C40.5043 28.8532 40.137 28.4859 40.137 28.0315C40.137 27.5771 40.5043 27.2098 40.9587 27.2098H53.6132C54.0675 27.2098 54.4349 27.5771 54.4349 28.0315C54.4349 28.4859 54.0675 28.8532 53.6132 28.8532H40.9587Z" fill="#0B7572"/>
<path fill-rule="evenodd" clip-rule="evenodd" d="M48.0061 15.0291H31.011V19.476H48.0061V15.0291Z" fill="#0B7572"/>
</svg>

<svg width="80" height="80" fill="none" xmlns="http://www.w3.org/2000/svg"><circle cx="40" cy="40" r="40" fill="#E9E9EC"/><path fill-rule="evenodd" clip-rule="evenodd" d="M26.168 51.745h6.902c.455 0 .822.368.822.822v6.902a.821.821 0 0 1-.822.822h-6.902a.821.821 0 0 1-.822-.822v-6.902c0-.454.367-.822.822-.822Zm27.445-9.638H40.96a.821.821 0 1 1 0-1.643h12.654a.821.821 0 1 1 0 1.643ZM34.404 25.383l-6.458 6.457a.822.822 0 0 1-1.305-.155l-1.952-3.383a.824.824 0 0 1 .3-1.121.824.824 0 0 1 1.12.3l1.422 2.465 5.713-5.714a.823.823 0 0 1 1.16 0 .823.823 0 0 1 0 1.16v-.01ZM30.19 15h-9.367a.821.821 0 0 0-.822.822v47.853c0 .454.367.822.822.822h37.374a.821.821 0 0 0 .821-.822V15.822a.821.821 0 0 0-.822-.822h-9.367v4.476a.821.821 0 0 1-.822.822H31.011a.821.821 0 0 1-.822-.822V15Zm9.948 41.018a.82.82 0 0 1 .822-.821h12.654a.821.821 0 1 1 0 1.643H40.96a.82.82 0 0 1-.822-.822Zm-5.733-17.382-6.458 6.458a.822.822 0 0 1-1.305-.155l-1.952-3.383a.824.824 0 0 1 .3-1.121.824.824 0 0 1 1.12.3l1.422 2.465 5.713-5.714a.823.823 0 0 1 1.16 0 .823.823 0 0 1 0 1.16v-.01Zm6.555-9.783a.82.82 0 1 1 0-1.643h12.654a.821.821 0 1 1 0 1.643H40.96Z" fill="#0B7572"/><path fill-rule="evenodd" clip-rule="evenodd" d="M48.006 15.03H31.011v4.446h16.995v-4.447Z" fill="#0B7572"/></svg>
